X: 091
M: C
L: 1/8
K: F
|:\
|:\
c>dc>f d>ed>f | c>dcB/A/ AGz2 |
c>dcf d>edf | c>dcB/A/ AGz2 |\
c>BA2 d>cB2 | f2c_e dBB2 |\

